X:1
T:Builded on the Rock
T:Mrs. C. Rice, before 1932
T:Builded on the Rock
T:Public Domain
T:Public Domain
C:Mrs. C. Rice, before 1932
Z:Public Domain
%%score ( 1 2 ) 3
L:1/8
M:4/4
K:F
V:1 treble 
V:2 treble 
V:3 bass 
V:1
 [Fc]2 | ([FA]>[FA]) ([FA]>[FA]) [FA]2 ([EG]>[EG]) | [DF]2 [B,D]2 C4 | %3
w: 1.~I|builded * on~the * Rock, on~the *|Rock of God,|
w: 2.~Why|should * I * fear when~the *|winds sweep by?|
w: 3.~Hush,|rag- * ing * bil- lows~at *|His com- mand,|
w: 4.~Praise|God * for * our found- *|a- tion sure!|
 [CF]>[CF] [CF]>[CG] [FA]2 [FA]2 | [FA]2 [EG]4 [Fc]2 | [FA]2 [FA]2 [FA]2 ([EG]>[EG]) | %6
w: ed on the Rock, Christ Je-|sus; I dug|down deep and builded *|
w: ed on the Rock, Christ Je-|sus; Or shak-|en be when~the waves *|
w: ed on the Rock, Christ Je-|sus; Oh, peace|be still ’neath His *|
w: ed on the Rock, Christ Je-|sus; No storms|can harm our home *|
 ([DF]>[DF]) ([DF]>D) C4 | [CF]>[CF] [DF]>[DG] [FA]2 [EG]2 | [CF]6 ||"^Refrain" [Fc]2 | %10
w: on~the * Rock, * Build-|the Rock of God. * *|||
w: roll * high? * Build-|the Rock of God. * *|||
w: loving * hand! * Build-|the Rock of God. * *|||
w: se- * cure, * Build-|the Rock of God. * *|||
 [FA]2 [FA]>[FA] [FA]2 [EG]>[EG] | [DF]2 [B,D]2 C3 C | [CF]2 [CF]2 [FA]3 [FA] | %13
w: |||
w: |||
w: |||
w: |||
 [FA]2 [FA]2 [EG]2 [Fc]2 | [FA]2 [FA]>[FA] [FA]2 [EG]>[EG] | [DF]2 [B,D]2 C4 | %16
w: |||
w: |||
w: |||
w: |||
 [CF]>[CF] [DF]>[DG] [FA]2 [EG]2 | [CF]6 |] %18
w: ||
w: ||
w: ||
w: ||
V:2
 x2 | x8 | x4 C4 | x8 | x8 | x8 | x7/2 D/ C4 | x8 | x6 || x2 | x8 | x4 C3 C | x8 | x8 | x8 | %15
w: ||Build-||||ed on|||||||||
w: ||Build-||||ed on|||||||||
w: ||Build-||||ed on|||||||||
w: ||Build-||||ed on|||||||||
 x4 C4 | x8 | x6 |] %18
w: |||
w: |||
w: |||
w: |||
V:3
 [F,A,]2 | ([F,C]>[F,C]) [F,C]>[F,C] [F,C]2 ([C,B,]>[C,B,]) | [B,,B,]2 [B,,F,]2 [F,A,]4 | %3
w: ~|~ * ~ ~ ~ ~ *|~ ~ ~|
 [F,A,]>[F,A,] [F,A,]>[F,B,] [F,C]2 [F,C]2 | [C,C]2 [C,C]4 [F,A,]2 | %5
w: ~ ~ ~ ~ ~ ~|~ ~ ~|
 [F,C]2 [F,C]2 [F,C]2 ([C,B,]>[C,B,]) | ([B,,B,]>[B,,B,]) [B,,B,]>[B,,B,] [F,A,]4 | %7
w: ~ ~ ~ ~ *|~ * ~ ~ ~|
 [A,,A,]>[A,,A,] [B,,F,]>[B,,F,] [C,C]2 [C,B,]2 | [F,A,]6 || [F,A,]2 | %10
w: ~ ~ ~ ~ ~ ~|~|I|
 [F,C]2 [F,C]>[F,C] [F,C]2 [C,B,]>[C,B,] | [B,,B,]2 [B,,F,]2 [F,A,]3 [F,A,] | %12
w: hold not the Rock, but the|Rock holds me, The|
 [F,A,]2 [F,A,]2 [F,C]3 [F,C] | [F,C]2 [F,C]2 [C,C]2 [F,A,]2 | %14
w: Rock holds me, the|Rock holds me; I|
 [F,C]2 [F,C]>[F,C] [F,C]2 [C,B,]>[C,B,] | [B,,F,]2 [B,,F,]2 [F,A,]4 | %16
w: rest on the Rock, and the|Rock holds me,|
 [A,,A,]>[A,,A,] [B,,F,]>[B,,F,] [C,C]2 [C,B,]2 | [F,A,]6 |] %18
w: Rest- ing on the Rock of|God.|

